X:42
T:ROND PALUDIER
Z: Yves BELOTTEAU
M:4/4
L:1/8
Q:1/4=120
K:G
|GGFE3/2 z/2 A3/2 z/2 A|ABBB GE3/2 z/2 A3/2 z/2 |AFGG GFE3/2 z/2 |A3/2 z
/2 AA BBBG|
E3/2 z/2 A3/2 z/2 AFGG|GABB BGB3/2 z/2 |G3/2 z/2 F3/2 z/2 EAAA|BBB3/2 z/
2 G3/2 z/2 EA|
AFG3/2 z/2 G3/2 z/2 F3/2 z/2 |EAAA BBB3/2 z/2 |G3/2 z/2 EA AFG3/2|
